icons/fill-new-communication-phone-outline-telephone-sound.svg

<svg xmlns="http://www.w3.org/2000/svg" width="32px" height="32px" viewBox="0 0 32 32" version="1.1">
    <title>fill-new-communication-phone-outline-telephone-sound</title>
    <g id="fill-new-communication-phone-outline-telephone-sound" stroke-width="1" fill-rule="evenodd">
        <path d="M6.73663892,3.85098511 C6.86237952,3.90128135 6.97659383,3.97659383 7.07235502,4.07235502 L12.4599148,9.45991478 C12.7787853,9.77878533 12.8447855,10.2716253 12.6210511,10.6631605 L11.3789489,12.8368395 C11.1552145,13.2283747 11.2212147,13.7212147 11.5400852,14.0400852 L17.9599148,20.4599148 C18.2787853,20.7787853 18.7716253,20.8447855 19.1631605,20.6210511 L21.3368395,19.3789489 C21.7283747,19.1552145 22.2212147,19.2212147 22.5400852,19.5400852 L27.927645,24.927645 C28.3181693,25.3181693 28.3181693,25.9513342 27.927645,26.3418585 C27.8318838,26.4376197 27.7176695,26.5129322 27.5919289,26.5632285 L19.612234,29.7551064 C19.2408172,29.9036731 18.8165991,29.8165991 18.5337365,29.5337365 L2.46626349,13.4662635 C2.18340091,13.1834009 2.09632688,12.7591828 2.24489359,12.387766 L5.43677155,4.40807113 C5.64188496,3.89528761 6.2238554,3.64587171 6.73663892,3.85098511 Z M16,8 C20.418278,8 24,11.581722 24,16 C24,16.5522847 23.5522847,17 23,17 C22.4477153,17 22,16.5522847 22,16 C22,12.6862915 19.3137085,10 16,10 C15.4477153,10 15,9.55228475 15,9 C15,8.44771525 15.4477153,8 16,8 Z M16,2 C23.7319865,2 30,8.2680135 30,16 C30,16.5522847 29.5522847,17 29,17 C28.4477153,17 28,16.5522847 28,16 C28,9.372583 22.627417,4 16,4 C15.4477153,4 15,3.55228475 15,3 C15,2.44771525 15.4477153,2 16,2 Z" id="&#24418;&#29366;" />
    </g>
</svg>

<svg xmlns="http://www.w3.org/2000/svg" viewBox="0 0 32 32"><path fill="currentColor" d="M6.737 3.851a1 1 0 0 1 .335.221L12.46 9.46a1 1 0 0 1 .161 1.203l-1.242 2.174a1 1 0 0 0 .161 1.203l6.42 6.42a1 1 0 0 0 1.203.161l2.174-1.242a1 1 0 0 1 1.203.161l5.388 5.388a1 1 0 0 1-.336 1.635l-7.98 3.192a1 1 0 0 1-1.078-.221L2.466 13.466a1 1 0 0 1-.221-1.078l3.192-7.98a1 1 0 0 1 1.3-.557M16 8a8 8 0 0 1 8 8 1 1 0 0 1-2 0 6 6 0 0 0-6-6 1 1 0 0 1 0-2m0-6c7.732 0 14 6.268 14 14a1 1 0 0 1-2 0c0-6.627-5.373-12-12-12a1 1 0 0 1 0-2"/></svg>
